X:1
T:He That Winneth Souls
T:He That Winneth Souls
T:John Millard Harris
T:Eliza Edmunds Hewitt, 1904
T:Public Domain Courtesy of the Cyber Hymnal™
T:Public Domain Courtesy of the Cyber Hymnal™
C:John Millard Harris
Z:Public Domain
Z:Courtesy of the Cyber Hymnal™
%%score ( 1 2 ) ( 3 4 )
L:1/8
Q:1/4=95
M:4/4
K:Ab
V:1 treble 
V:2 treble 
V:3 bass 
V:4 bass 
V:1
 [CE]>[CE] [DF][DG] [CA][DG][EA][FB] | [Ec]2 [DB]2 [CA]4 | [EB]>[E=A] [EB][Ec] [Ed][Ec][DB][CA] | %3
w: 1.~Bless- èd is the ser- vice of our|Lord and king,|Pre- cious are the jew- els we may|
w: 2.~In the qui- et home life, show- ing|love’s bright ray,|More and more like Je- sus, liv- ing|
w: 3.~Out up- on the high- way, go- ing|forth with prayer,|For the lost and stray- ing, seek- ing|
w: 4.~Sow be- side all wa- ters, sow the|Gos- pel seed,|Here a word in sea- son, there a|
 [=Dc]2 [DB]2 [EB]4 | [Ec]>[Ed] [Ae][Af] [Ae][Ec][EB][EA] | [DF]2 [Fd]2 [Fd]4 | %6
w: help to bring;|Down the pass- ing ag- es words of|coun- sel ring,|
w: ev- ery day,|We may guide a dear one to the|heav’n- ward way,|
w: ev- ery- where,|Close be- side the Shep- herd, we His|joy may share,|
w: lov- ing deed;|Sin- ners to the Sav- ior, be it|ours to lead,|
 [Ec]>"^rit. ad lib."[CE] [EA]<[Ed] [Ec]2 [DB]2 | [CA]6 z2 ||"^Refrain" E>E F<G A2 [EB]2 | %9
w: He that win- neth souls is|wise.||
w: He that win- neth souls is|wise.|He that win- neth souls is|
w: He that win- neth souls is|wise.||
w: He that win- neth souls is|wise.||
 c4- [Ec]3 z | d>d dd [Fd]2 A2 | c6- [Ec]3 z | [Ae]>[Ae] [Ae][Af] [Ae][Ec][EB][EA] | %13
w: ||||
w: wise; In|* the home be- yond the|skies, There’s|* a crown of glo- ry, oh, the|
w: ||||
w: ||||
 [DF]2 [Fd]2 [Fd]4 | [Ec]>[CE]"^rit. ad lib." [EA]<[Ed] [Ec]2 [DB]2 | [CA]6 z2 |] %16
w: |||
w: won- drous prize!|He that win- neth souls is|wise.|
w: |||
w: |||
V:2
 x8 | x8 | x8 | x8 | x8 | x8 | x8 | x8 || C2 D2 (CE) x2 | E>EF>C x4 | F2 F2 x (_FF) x | E>EF>C x6 | %12
 x8 | x8 | x8 | x8 |] %16
V:3
 [A,,A,]>[A,,A,] [A,,A,][A,,A,] [A,,E,][B,,B,][C,A,][D,A,] | [E,A,]2 [E,G,]2 [A,,A,]4 | %2
w: ~ ~ ~ ~ ~ ~ ~ ~|~ ~ ~|
 [E,G,]>[E,^F,] [E,G,][E,A,] [E,B,][E,A,][E,G,][=F,A,] | [B,,A,]2 [B,,A,]2 [E,G,]4 | %4
w: ~ ~ ~ ~ ~ ~ ~ ~|~ ~ ~|
 A,>[A,B,] [A,C][A,D] [A,C][A,,A,][B,,G,][C,A,] | [D,A,]2 [D,A,]2 [D,A,]4 | %6
w: ~ ~ ~ ~ ~ ~ ~ ~|~ ~ ~|
 [E,A,]>[E,A,] [E,C]<[E,B,] [E,A,]2 [E,G,]2 | [A,,A,]6 z2 || %8
w: ~ ~ ~ ~ ~ ~|~|
 [A,,A,]2 [A,,A,]2 ([A,,E,][C,A,]) [E,G,]2 | A,>A, A,>A, A,3 z | [D,A,]2 [D,A,]2 [D,A,]2 [D,A,]2 | %11
w: He that win- * neth,|win- neth souls is wise,|In the home be-|
 [A,,A,]>[A,,A,] [A,,A,]>[A,,A,] [A,,A,]3 z x2 | [A,C]>[A,C] [A,C][A,D] [A,C][A,,A,][B,,G,][C,A,] | %13
w: yond, be- yond the skies,||
 [D,A,]2 [D,A,]2 [D,A,]4 | [E,A,]>[E,A,] [E,C]<[E,B,] [E,A,]2 [E,G,]2 | [A,,A,]6 z2 |] %16
w: |||
V:4
 x8 | x8 | x8 | x8 | A,3/2 x13/2 | x8 | x8 | x8 || x8 | A,>A, A,>A, A,3 x | x8 | x10 | x8 | x8 | %14
 x8 | x8 |] %16

